X: 40534
T: Tommy Makem's
R: reel
M: 4/4
K: Dmajor
F2 AF GABG|FAdA GFED|F2 AF GABG|FAdF E2 DE|
F2 AF GABG|FAdA GFED|dcBA BAGF|GFED E4|
FAdA FAdA|GBdB GBdB|FAdA FAdA|GFED E4|
FAdA FAdA|GBdB GBdB|Aceg fedc|dBAF D4|

